tokyo/Assets/Global/share-icons/reddit.svg

<svg role="img" viewBox="0 0 24 24" xmlns="http://www.w3.org/2000/svg"><title>Reddit</title><path d="M12 0C5.373 0 0 5.373 0 12c0 3.314 1.343 6.314 3.515 8.485l-2.286 2.286C.775 23.225 1.097 24 1.738 24H12c6.627 0 12-5.373 12-12S18.627 0 12 0Zm4.388 3.199c1.104 0 1.999.895 1.999 1.999 0 1.105-.895 2-1.999 2-.946 0-1.739-.657-1.947-1.539v.002c-1.147.162-2.032 1.15-2.032 2.341v.007c1.776.067 3.4.567 4.686 1.363.473-.363 1.064-.58 1.707-.58 1.547 0 2.802 1.254 2.802 2.802 0 1.117-.655 2.081-1.601 2.531-.088 3.256-3.637 5.876-7.997 5.876-4.361 0-7.905-2.617-7.998-5.87-.954-.447-1.614-1.415-1.614-2.538 0-1.548 1.255-2.802 2.803-2.802.645 0 1.239.218 1.712.585 1.275-.79 2.881-1.291 4.64-1.365v-.01c0-1.663 1.263-3.034 2.88-3.207.188-.911.993-1.595 1.959-1.595Zm-8.085 8.376c-.784 0-1.459.78-1.506 1.797-.047 1.016.64 1.429 1.426 1.429.786 0 1.371-.369 1.418-1.385.047-1.017-.553-1.841-1.338-1.841Zm7.406 0c-.786 0-1.385.824-1.338 1.841.047 1.017.634 1.385 1.418 1.385.785 0 1.473-.413 1.426-1.429-.046-1.017-.721-1.797-1.506-1.797Zm-3.703 4.013c-.974 0-1.907.048-2.77.135-.147.015-.241.168-.183.305.483 1.154 1.622 1.964 2.953 1.964 1.33 0 2.47-.81 2.953-1.964.057-.137-.037-.29-.184-.305-.863-.087-1.795-.135-2.769-.135Z"/></svg>

<svg width="24" height="24" viewBox="0 0 24 24" fill="none" xmlns="http://www.w3.org/2000/svg">
<g clip-path="url(#clip0_2549_21)">
<path d="M12 0C5.373 0 0 5.373 0 12C0 15.314 1.343 18.314 3.515 20.485L1.229 22.771C0.775 23.225 1.097 24 1.738 24H12C18.627 24 24 18.627 24 12C24 5.373 18.627 0 12 0ZM16.388 3.199C17.492 3.199 18.387 4.094 18.387 5.198C18.387 6.303 17.492 7.198 16.388 7.198C15.442 7.198 14.649 6.541 14.441 5.659V5.661C13.294 5.823 12.409 6.811 12.409 8.002V8.009C14.185 8.076 15.809 8.576 17.095 9.372C17.568 9.009 18.159 8.792 18.802 8.792C20.349 8.792 21.604 10.046 21.604 11.594C21.604 12.711 20.949 13.675 20.003 14.125C19.915 17.381 16.366 20.001 12.006 20.001C7.645 20.001 4.101 17.384 4.008 14.131C3.054 13.684 2.394 12.716 2.394 11.593C2.394 10.045 3.649 8.791 5.197 8.791C5.842 8.791 6.436 9.009 6.909 9.376C8.184 8.586 9.79 8.085 11.549 8.011V8.001C11.549 6.338 12.812 4.967 14.429 4.794C14.617 3.883 15.422 3.199 16.388 3.199ZM8.303 11.575C7.519 11.575 6.844 12.355 6.797 13.372C6.75 14.388 7.437 14.801 8.223 14.801C9.009 14.801 9.594 14.432 9.641 13.416C9.688 12.399 9.088 11.575 8.303 11.575ZM15.709 11.575C14.923 11.575 14.324 12.399 14.371 13.416C14.418 14.433 15.005 14.801 15.789 14.801C16.574 14.801 17.262 14.388 17.215 13.372C17.169 12.355 16.494 11.575 15.709 11.575ZM12.006 15.588C11.032 15.588 10.099 15.636 9.236 15.723C9.089 15.738 8.995 15.891 9.053 16.028C9.536 17.182 10.675 17.992 12.006 17.992C13.336 17.992 14.476 17.182 14.959 16.028C15.016 15.891 14.922 15.738 14.775 15.723C13.912 15.636 12.98 15.588 12.006 15.588Z" fill="black"/>
</g>
<defs>
<clipPath id="clip0_2549_21">
<rect width="24" height="24" fill="white"/>
</clipPath>
</defs>
</svg>
